!!!COM: Paul Hindemith
!!!OTL: [T617_Hin-w7p11hOm1-10]
**kern	**kern	**dynam	**kern	**dynam
*grp:A	*grp:A	*grp:A	*grp:B	*grp:B
*part2	*part2	*part2	*part1	*part1
*staff3	*staff2	*	*staff1	*
*I"Piano	*	*	*I"Violoncello	*
*I'Pno.	*	*	*I'Vc.	*
*ICklav	*ICklav	*	*ICstr	*
*Ipiano	*Ipiano	*	*Icello	*
*clefF4	*clefG2	*	*clefG2	*
*k[]	*k[]	*	*k[]	*
*C:	*C:	*	*C:	*
*M4/4	*M4/4	*	*M4/4	*
=1	=1	=1	=1	=1
!	!	!	!LO:TX:t=[quarter]=185	!
!	!	!LO:DY:ed=brack	!	!LO:DY:ed=brack
4FF#X^ 4C 4E	4fni^ 4a	ff	(2.b]	ff
*clefG2	*	*	*	*
(8fnL	(8aaL	.	.	.
8bJ	8gg#XJ	.	.	.
8ccL	8dd#XL	.	.	.
8f	8aa	.	.	.
!	!	!	!LO:TX:a:B:t=Allmählich behruhigen	!
8b	8gg#	.	4b-X)	.
8ccJ	8dd#J	.	.	.
=2	=2	=2	=2	=2
8fL	8aaL	.	(2d	.
8b	8gg#X	.	.	.
!	!	!LO:HP:t= sempre %s	!	!LO:HP:t= sempre %s
8cc	8dd#X	>	.	>
8fJ	8aaJ	.	.	.
!	!	!	!	!
8bL	8gg#L	.	2c#X)	.
8cc	8dd#	.	.	.
8f	8aa	.	.	.
8bJ	8gg#J	.	.	.
=3	=3	=3	=3	=3
8ccL)	8dd#XL)	.	4r	.
(8e	(8bb-X	.	.	.
8a#X	8aa	.	(2d	.
8bnJ	8eeJ	.	.	.
8eL	8bb-L	.	.	.
8a#	8aa	.	.	.
8b	8ee	.	4en)	.
8eJ	8bb-J	.	.	.
=4	=4	=4	=4	=4
8a#XL	8aaL	.	(4g-X	.
8b)	8ee)	.	.	.
(8f	(8aa	.	4f	.
8bJ	8gg#XJ	.	.	.
8ccL	8dd#XL	.	4e-X	.
8f	8aa	.	.	.
8b	8gg#	.	4b-X)	.
8ccJ	8dd#J	.	.	.
=5	=5	=5	=5	=5
8fL	8aaL	.	[1an	.
8b	8gg#X	.	.	.
8cc)	8dd#X)	.	.	.
(8d-XJ	(8bbJ	.	.	.
8gL	8bb-XL	.	.	.
8a-X	8ffn	.	.	.
8d-	8ccc-X	.	.	.
8gJ	8bb-J	.	.	.
=6	=6	=6	=6	=6
8a-XL	8ffL	.	4a]	.
8d-X	8ccc-X	.	.	.
8g	8bb-X	.	(4e	.
8a-J	8ffJ	.	.	.
8d-L	8ccc-L	.	4f#X	.
8g	8bb-	.	.	.
8a-	8ff	.	4g)	.
8d-J	8ccc-J	.	.	.
=7	=7	=7	=7	=7
8gL	8bb-XL	.	(2g	.
8a-X)	8ff)	.	.	.
(8f	(8aa	.	.	.
8bnJ	8gg#XJ	.	.	.
8ccL	8dd#XL	.	[2f#X	.
8f	8aa	.	.	.
8b	8gg#	.	.	.
8ccJ)	8dd#J)	.	.	.
=8	=8	=8	=8	=8
(8e-XL	(8ggnL	.	4f#])	.
8a	8ff#X	.	.	.
*	*	*	*clefF4	*
!	!	!LO:DY:t= %s dim.	!	!LO:DY:t= %s dim.
8b-X	8cc#X	mf	(4c#X	mf
8e-J	8ggJ	.	.	.
!	!	!	!	!
8aL	8ff#L	.	4d#X	.
8b-)	8cc#)	.	.	.
(8d-X	(8ffn	.	4e)	.
8gJ	8eeJ	.	.	.
=9	=9	=9	=9	=9
8a-XL	8bL	.	(2e	.
8d-X	8ff	.	.	.
8g	8ee	.	.	.
8a-J)	8bJ)	.	.	.
(8c-XL	(8ee-XL	.	[2d#X	.
8f	8dd	.	.	.
8g-X	8a	.	.	.
8c-J	8ee-J	.	.	.
=10	=10	=10	=10	=10
8fL	8ddL	.	4d#])	.
8g-X)	8a)	.	.	.
(8An	(8dd-X	.	(4B-X	.
8d#XJ	8ccJ	.	.	.
8enL	8gL	.	4c	.
8An	8dd-	.	.	.
8d#	8cc	.	4d-X)	.
8eJ)	8gJ)	.	.	.
=	=	=	=	=
*-	*-	*-	*-	*-
!!!system-decoration: s1[({(s2,s3)})]
!!!RDF**dynam: > = dim.
!!!RDF**kern: i = editorial accidental, brack
